file/shopify.svg

<svg clip-rule="evenodd" fill-rule="evenodd" stroke-linejoin="round" stroke-miterlimit="1.41421" viewBox="0 0 560 400" xmlns="http://www.w3.org/2000/svg"><g fill-rule="nonzero" transform="matrix(.967482 0 0 .967482 86.6488 56.8611)"><path d="m93.8 115c-.1-.5-.5-.8-.9-.8s-8.3-.6-8.3-.6-5.5-5.5-6.2-6.1c-.6-.6-1.8-.4-2.3-.3-.1 0-1.2.4-3.1 1-1.9-5.4-5.1-10.3-10.9-10.3h-.5c-1.6-2.1-3.6-3-5.4-3-13.4 0-19.8 16.7-21.8 25.2-5.2 1.6-8.9 2.7-9.4 2.9-2.9.9-3 1-3.3 3.7-.3 2.1-7.9 60.9-7.9 60.9l59.2 11 32.1-6.9c.1-.1-11.2-76.2-11.3-76.7zm-24-6c-1.5.4-3.2 1-5 1.6v-1.1c0-3.3-.4-6-1.2-8.1 3 .4 4.9 3.7 6.2 7.6zm-10-6.9c.8 2.1 1.3 5 1.3 9v.6c-3.3 1-6.8 2.1-10.3 3.2 2-7.6 5.9-11.4 9-12.8zm-3.9-3.8c.6 0 1.2.2 1.7.6-4.3 2-8.9 7.1-10.8 17.3-2.9.9-5.6 1.7-8.2 2.6 2.3-7.8 7.7-20.5 17.3-20.5z" fill="#95bf47"/><path d="m92.9 114.1c-.4 0-8.3-.6-8.3-.6s-5.5-5.5-6.2-6.1c-.2-.2-.5-.4-.8-.4l-4.4 91.6 32.1-6.9s-11.3-76.2-11.3-76.7c-.3-.6-.7-.8-1.1-.9z" fill="#5e8e3e"/><path d="m62.2 131.8-3.9 11.7s-3.5-1.9-7.7-1.9c-6.3 0-6.6 4-6.6 4.9 0 5.4 14 7.4 14 20 0 9.9-6.3 16.3-14.7 16.3-10.2 0-15.3-6.3-15.3-6.3l2.7-9s5.4 4.6 9.9 4.6c3 0 4.2-2.3 4.2-4 0-7-11.4-7.3-11.4-18.9 0-9.7 6.9-19 21-19 5.1.1 7.8 1.6 7.8 1.6z" fill="#fff"/><path d="m142.6 153.9c-3.2-1.7-4.9-3.2-4.9-5.2 0-2.6 2.3-4.2 5.9-4.2 4.2 0 7.9 1.7 7.9 1.7l2.9-8.9s-2.7-2.1-10.6-2.1c-11 0-18.7 6.3-18.7 15.2 0 5 3.6 8.9 8.3 11.6 3.9 2.1 5.2 3.7 5.2 6 0 2.4-1.9 4.3-5.5 4.3-5.3 0-10.3-2.7-10.3-2.7l-3.1 8.9s4.6 3.1 12.4 3.1c11.3 0 19.5-5.6 19.5-15.6 0-5.4-4.1-9.2-9-12.1zm45.1-18.8c-5.6 0-10 2.7-13.3 6.7l-.1-.1 4.9-25.3h-12.6l-12.3 64.5h12.6l4.2-22c1.6-8.3 6-13.5 10-13.5 2.9 0 4 1.9 4 4.7 0 1.7-.1 3.9-.5 5.6l-4.7 25.2h12.6l4.9-26c.5-2.7.9-6 .9-8.3-.3-7.3-4-11.5-10.6-11.5zm38.9 0c-15.2 0-25.2 13.7-25.2 29 0 9.7 6 17.6 17.3 17.6 14.9 0 24.9-13.3 24.9-29 .1-9.1-5.2-17.6-17-17.6zm-6.2 36.9c-4.3 0-6.1-3.6-6.1-8.3 0-7.2 3.7-19 10.6-19 4.4 0 6 3.9 6 7.6-.1 7.8-3.9 19.7-10.5 19.7zm55.5-36.9c-8.5 0-13.3 7.5-13.3 7.5h-.1l.7-6.8h-11.2c-.5 4.6-1.6 11.6-2.6 16.7l-8.7 46.2h12.6l3.5-18.7h.3s2.6 1.6 7.4 1.6c14.8 0 24.5-15.2 24.5-30.5 0-8.4-3.9-16-13.1-16zm-12.1 37.1c-3.3 0-5.2-1.9-5.2-1.9l2.1-11.7c1.5-7.9 5.6-13.1 10-13.1 3.9 0 5 3.6 5 6.9.1 8.2-4.8 19.8-11.9 19.8zm43.2-55.2c-4 0-7.2 3.2-7.2 7.3 0 3.7 2.4 6.3 6 6.3h.1c4 0 7.3-2.7 7.4-7.3-.1-3.7-2.6-6.3-6.3-6.3zm-17.7 63.8h12.6l8.5-44.8h-12.7m44.9 0h-8.8l.4-2.1c.7-4.3 3.3-8.1 7.5-8.1 2.3 0 4 .7 4 .7l2.4-9.9s-2.1-1.1-6.9-1.1c-4.4 0-8.9 1.3-12.3 4.2-4.3 3.6-6.3 8.9-7.3 14.3l-.4 2.1h-5.9l-1.9 9.5h5.9l-6.7 35.3h12.6l6.7-35.3h8.7zm30.3 0s-7.9 19.9-11.4 30.8h-.1c-.2-3.5-3.1-30.8-3.1-30.8h-13.3l7.6 41c.1.9.1 1.5-.3 2.1-1.5 2.9-4 5.6-6.9 7.6-2.4 1.7-5 2.9-7.2 3.6l3.5 10.7c2.6-.5 7.9-2.7 12.3-6.9 5.7-5.4 11.1-13.7 16.5-25l15.4-33.1z"/></g></svg>

<?xml version="1.0" encoding="UTF-8" standalone="no"?>
<!DOCTYPE svg PUBLIC "-//W3C//DTD SVG 1.1//EN" "http://www.w3.org/Graphics/SVG/1.1/DTD/svg11.dtd">
<svg width="100%" height="100%" viewBox="0 0 560 400" version="1.1" xmlns="http://www.w3.org/2000/svg" xmlns:xlink="http://www.w3.org/1999/xlink" xml:space="preserve" xmlns:serif="http://www.serif.com/" style="fill-rule:evenodd;clip-rule:evenodd;stroke-linejoin:round;stroke-miterlimit:1.41421;">
    <g transform="matrix(0.967482,0,0,0.967482,86.6488,56.8611)">
        <path id="green_1_" d="M93.8,115C93.7,114.5 93.3,114.2 92.9,114.2C92.5,114.2 84.6,113.6 84.6,113.6C84.6,113.6 79.1,108.1 78.4,107.5C77.8,106.9 76.6,107.1 76.1,107.2C76,107.2 74.9,107.6 73,108.2C71.1,102.8 67.9,97.9 62.1,97.9L61.6,97.9C60,95.8 58,94.9 56.2,94.9C42.8,94.9 36.4,111.6 34.4,120.1C29.2,121.7 25.5,122.8 25,123C22.1,123.9 22,124 21.7,126.7C21.4,128.8 13.8,187.6 13.8,187.6L73,198.6L105.1,191.7C105.2,191.6 93.9,115.5 93.8,115ZM69.8,109C68.3,109.4 66.6,110 64.8,110.6L64.8,109.5C64.8,106.2 64.4,103.5 63.6,101.4C66.6,101.8 68.5,105.1 69.8,109ZM59.8,102.1C60.6,104.2 61.1,107.1 61.1,111.1L61.1,111.7C57.8,112.7 54.3,113.8 50.8,114.9C52.8,107.3 56.7,103.5 59.8,102.1ZM55.9,98.3C56.5,98.3 57.1,98.5 57.6,98.9C53.3,100.9 48.7,106 46.8,116.2C43.9,117.1 41.2,117.9 38.6,118.8C40.9,111 46.3,98.3 55.9,98.3Z" style="fill:rgb(149,191,71);fill-rule:nonzero;"/>
        <path id="green" d="M92.9,114.1C92.5,114.1 84.6,113.5 84.6,113.5C84.6,113.5 79.1,108 78.4,107.4C78.2,107.2 77.9,107 77.6,107L73.2,198.6L105.3,191.7C105.3,191.7 94,115.5 94,115C93.7,114.4 93.3,114.2 92.9,114.1Z" style="fill:rgb(94,142,62);fill-rule:nonzero;"/>
        <path id="s" d="M62.2,131.8L58.3,143.5C58.3,143.5 54.8,141.6 50.6,141.6C44.3,141.6 44,145.6 44,146.5C44,151.9 58,153.9 58,166.5C58,176.4 51.7,182.8 43.3,182.8C33.1,182.8 28,176.5 28,176.5L30.7,167.5C30.7,167.5 36.1,172.1 40.6,172.1C43.6,172.1 44.8,169.8 44.8,168.1C44.8,161.1 33.4,160.8 33.4,149.2C33.4,139.5 40.3,130.2 54.4,130.2C59.5,130.3 62.2,131.8 62.2,131.8Z" style="fill:white;fill-rule:nonzero;"/>
        <path id="text" d="M142.6,153.9C139.4,152.2 137.7,150.7 137.7,148.7C137.7,146.1 140,144.5 143.6,144.5C147.8,144.5 151.5,146.2 151.5,146.2L154.4,137.3C154.4,137.3 151.7,135.2 143.8,135.2C132.8,135.2 125.1,141.5 125.1,150.4C125.1,155.4 128.7,159.3 133.4,162C137.3,164.1 138.6,165.7 138.6,168C138.6,170.4 136.7,172.3 133.1,172.3C127.8,172.3 122.8,169.6 122.8,169.6L119.7,178.5C119.7,178.5 124.3,181.6 132.1,181.6C143.4,181.6 151.6,176 151.6,166C151.6,160.6 147.5,156.8 142.6,153.9ZM187.7,135.1C182.1,135.1 177.7,137.8 174.4,141.8L174.3,141.7L179.2,116.4L166.6,116.4L154.3,180.9L166.9,180.9L171.1,158.9C172.7,150.6 177.1,145.4 181.1,145.4C184,145.4 185.1,147.3 185.1,150.1C185.1,151.8 185,154 184.6,155.7L179.9,180.9L192.5,180.9L197.4,154.9C197.9,152.2 198.3,148.9 198.3,146.6C198,139.3 194.3,135.1 187.7,135.1ZM226.6,135.1C211.4,135.1 201.4,148.8 201.4,164.1C201.4,173.8 207.4,181.7 218.7,181.7C233.6,181.7 243.6,168.4 243.6,152.7C243.7,143.6 238.4,135.1 226.6,135.1ZM220.4,172C216.1,172 214.3,168.4 214.3,163.7C214.3,156.5 218,144.7 224.9,144.7C229.3,144.7 230.9,148.6 230.9,152.3C230.8,160.1 227,172 220.4,172ZM275.9,135.1C267.4,135.1 262.6,142.6 262.6,142.6L262.5,142.6L263.2,135.8L252,135.8C251.5,140.4 250.4,147.4 249.4,152.5L240.7,198.7L253.3,198.7L256.8,180L257.1,180C257.1,180 259.7,181.6 264.5,181.6C279.3,181.6 289,166.4 289,151.1C289,142.7 285.1,135.1 275.9,135.1ZM263.8,172.2C260.5,172.2 258.6,170.3 258.6,170.3L260.7,158.6C262.2,150.7 266.3,145.5 270.7,145.5C274.6,145.5 275.7,149.1 275.7,152.4C275.8,160.6 270.9,172.2 263.8,172.2ZM307,117C303,117 299.8,120.2 299.8,124.3C299.8,128 302.2,130.6 305.8,130.6L305.9,130.6C309.9,130.6 313.2,127.9 313.3,123.3C313.2,119.6 310.7,117 307,117ZM289.3,180.8L301.9,180.8L310.4,136L297.7,136M342.6,136L333.8,136L334.2,133.9C334.9,129.6 337.5,125.8 341.7,125.8C344,125.8 345.7,126.5 345.7,126.5L348.1,116.6C348.1,116.6 346,115.5 341.2,115.5C336.8,115.5 332.3,116.8 328.9,119.7C324.6,123.3 322.6,128.6 321.6,134L321.2,136.1L315.3,136.1L313.4,145.6L319.3,145.6L312.6,180.9L325.2,180.9L331.9,145.6L340.6,145.6L342.6,136ZM372.9,136C372.9,136 365,155.9 361.5,166.8L361.4,166.8C361.2,163.3 358.3,136 358.3,136L345,136L352.6,177C352.7,177.9 352.7,178.5 352.3,179.1C350.8,182 348.3,184.7 345.4,186.7C343,188.4 340.4,189.6 338.2,190.3L341.7,201C344.3,200.5 349.6,198.3 354,194.1C359.7,188.7 365.1,180.4 370.5,169.1L385.9,136L372.9,136Z" style="fill-rule:nonzero;"/>
    </g>
</svg>
